assets/icons/qvision/reorder.svg

<svg xmlns="http://www.w3.org/2000/svg" height="24" viewBox="0 0 24 24" width="24"><path d="M0 0h24v24H0z" fill="none"/><path d="M3 15h18v-2H3v2zm0 4h18v-2H3v2zm0-8h18V9H3v2zm0-6v2h18V5H3z"/></svg>

<svg width="24" height="24" viewBox="0 0 24 24" fill="none" xmlns="http://www.w3.org/2000/svg">
<g clip-path="url(#clip0_147_4630)">
<path d="M3 15H21V13H3V15ZM3 19H21V17H3V19ZM3 11H21V9H3V11ZM3 5V7H21V5H3Z" fill="#323232"/>
</g>
<defs>
<clipPath id="clip0_147_4630">
<rect width="24" height="24" fill="white"/>
</clipPath>
</defs>
</svg>
